X:1709
L:1/8
Q:1/4=120
M:4/4
K:D
"^Allegro" (AG) | .F2 .A2 .E2 .A2 | (GF)(ED) .F2 .A2 | (Bc) .d2 (efed) | (dcBc) A2 (fe) | 
 .d2 .a2 (abag) | (fefg) .a2 (gf) | (gfed) (dcBc) | .d2 .d2 .d2 || (de) | .f2 .a2 (abag) | 
 (fg)(af) (.d'2 .d2) | (fg)(af) (d'c')(ba) | (ba)(gf) e2 (ef) | (gf)(ge) .f2 (fa) | 
 (gf)(ed) .c2 (Bc) | (dcd)f (ec)(Ac) | d2 d2 d2 ||

